public/assets/images/icons/grey/crop.svg

<svg id="Ebene_1" data-name="Ebene 1" xmlns="http://www.w3.org/2000/svg" viewBox="0 0 16 16"><defs><style>.cls-1{fill:#6f6f6e}</style></defs><path class="cls-1" d="M0 0v16h16V0zm15 10h-1.5v1H15v4h-4v-1.5h-1V15H1v-4h1.5v-1H1V1h9v1.5h1V1h4z"/><path class="cls-1" d="M4.33 10.02h2.75v.97H4.33zm6.65-1.1h-.96v1.1h-1.1v.96h1.1v.69h.96v-.69h.69v-.96h-.69v-1.1zm-.96-4.59h.97v2.75h-.97z"/></svg>

<svg id="Ebene_1" data-name="Ebene 1" xmlns="http://www.w3.org/2000/svg" viewBox="0 0 16 16"><defs><style>.cls-1{fill:#6f6f6e;}</style></defs><title>180607_Vector-Iconset 16x16</title><path class="cls-1" d="M0,0V16H16V0ZM15,10H13.5v1H15v4H11V13.5H10V15H1V11H2.5V10H1V1h9V2.5h1V1h4Z"/><rect class="cls-1" x="4.33" y="10.02" width="2.75" height="0.97"/><polygon class="cls-1" points="10.98 8.92 10.02 8.92 10.02 10.02 8.92 10.02 8.92 10.98 10.02 10.98 10.02 11.67 10.98 11.67 10.98 10.98 11.67 10.98 11.67 10.02 10.98 10.02 10.98 8.92"/><rect class="cls-1" x="10.02" y="4.33" width="0.97" height="2.75"/></svg>
